X:1
T:Title
%%score { ( 1 3 4 ) | ( 2 5 ) }
L:1/8
Q:1/4=100
M:4/4
K:A
V:1 treble nm="Grand Piano"
V:3 treble 
V:4 treble 
V:2 bass 
V:5 bass 
V:1
 [A,C]>[B,D] [CE]>[DF] [CE]2 [CA]2 | [A,C]>[B,D] [CE]>[DF] [CE]2 z2 | D>C B,>C D2 D2 | %3
w: W.~E.~M.~Hackleman * * * * *|||
 G>F E>D C2 z2 | C>[B,D] [CE]>[DF] [CE]2 [CA]2 | B>B F>F B2 z2 | %6
w: |||
 [Fd]>[Fd] [Fc]>[FB] [EA]>[EA] [CE]>[Fd] | [Ec]2 [DB]2 [CA]2 z2 | c6 z2 | c6 z2 | d6 z2 | d6 z2 | %12
w: ||||||
 c6 z2 | c6 z2 | [^DB]2 z2 [F^d]2 z2 | e6 z2 | c6 z2 | c6 z2 | d6 z2 | d6 z2 | c6 z2 | c6 z2 | %22
w: ||||||||||
 [^DB]2 z2 [F^d]2 z2 |[M:5/4] e2- e4- e z z2 |[M:4/4] [Ec]>[DB] [CA]>[CE] [DF]2 [CE]2 | %25
w: |||
 [Ec]>[DB] [CA]>[CE] [EG]2 F2 | E>F G>A B>c [Gd]>[Gf] |[M:6/4] [Ge]3 [DEG]3 [CEA]6 |] %28
w: |||
V:2
 [A,,E,]>[A,,E,] [A,,A,]>[A,,A,] [A,,A,]2 [A,,E,]2 | [A,,E,]>[A,,E,] [A,,A,]>[A,,A,] [A,,A,]2 z2 | %2
 [E,G,B,]>[E,A,] [E,G,]>[E,A,] [E,G,B,]2 [E,G,B,]2 | [E,B,E]>[E,B,D] [E,A,C]>[E,B,] [A,,E,A,]2 z2 | %4
 [A,,E,A,]>[A,,E,] [A,,A,]>[A,,A,] [A,,A,]2 [A,,E,]2 | %5
 [D,F,D]>[D,F,D] [D,B,D]>[D,B,D] [D,F,D]2 z2 | %6
 [B,,B,]>[B,,B,] [C,^A,]>[D,B,] [E,C]>[C,=A,] [A,,A,]>[D,A,] | [E,A,]2 [E,G,]2 [A,,E,]2 z2 | %8
 [A,,A,]>[A,,A,] [A,,A,]>[A,,A,] [A,,A,]2 (3z[K:treble] AB | [A,,A,]2 [A,,A,]2 [A,,A,]2 z2 | %10
 [E,B,]>[E,B,] [E,B,]>[E,B,] [E,B,]2 [E,G,]2 | [E,B,]2 [E,B,]2 [E,B,]2 z2 | %12
 [A,,A,]>[A,,A,] [A,,A,]>[A,,A,] [A,,A,]2 (3z[K:treble] AB | [A,,A,]2 [A,,A,]2 [A,,A,]2 z2 | %14
 [B,,F,]2 z2 [B,,A,]2 z2 | [E,G,E]>[F,A,] [G,B,]>[A,C] [B,D]2 [E,B,E]2 | %16
 [A,,A,]>[A,,A,] [A,,A,]>[A,,A,] [A,,A,]2 (3z[K:treble] AB | [A,,A,]2 [A,,A,]2 [A,,A,]2 z2 | %18
 [E,B,]>[E,B,] [E,B,]>[E,B,] [E,B,]2 [E,G,]2 | [E,B,]2 [E,B,]2 [E,B,]2 z2 | %20
 [A,,A,]>[A,,A,] [A,,A,]>[A,,A,] [A,,A,]2 (3z[K:treble] AB | [A,,A,]2 [A,,A,]2 [A,,A,]2 z2 | %22
 [B,,F,]2 z2 [B,,A,]2 z2 |[M:5/4] [E,G,E]>[F,A,] [G,B,]>[A,C] [B,D]3 [E,B,E]3 | %24
[M:4/4] [A,,A,]>[A,,A,] [A,,E,]>[A,,A,] [A,,A,]2 [A,,A,]2 | z4 [D,A,]4 | %26
 [E,G,D]>[E,A,D] [E,B,D]>[E,CE] [E,DE]>[E,A,E] [E,B,]>[E,D] |[M:6/4] [E,B,]3 E,3 A,,6 |] %28
V:3
 x8 | x8 | x8 | x8 | x8 | x8 | x8 | x8 | z z/ E/ E>E (3z BA .[A,CE]2 | E2 E2 E2 z2 | %10
 z z/ G/ G>G (3G-[GB]G (3z GB | G2 G2 G2 z2 | z z/ E/ E>E (3z BA .[A,CE]2 | E2 E2 E2 z2 | x8 | %15
 z z/ E/ E>E E2 d2 | z z/ E/ E>E (3z BA .[A,CE]2 | E2 E2 E2 z2 | z z/ G/ G>G (3G-[GB]G (3z GB | %19
 G2 G2 G2 z2 | z z/ E/ E>E (3z BA .[A,CE]2 | E2 E2 E2 z2 | x8 |[M:5/4] z z/ E/ E>E E3 d3 | %24
[M:4/4] x8 | x8 | x8 |[M:6/4] x12 |] %28
V:4
 x8 | x8 | x8 | x8 | x8 | x8 | x8 | x8 | E2 z2 E2 z2 | x8 | G2 z2 z2 E2 | x8 | E2 z2 E2 z2 | x8 | %14
 x8 | x8 | E2 z2 E2 z2 | x8 | G2 z2 z2 E2 | x8 | E2 z2 E2 z2 | x8 | x8 |[M:5/4] x10 |[M:4/4] x8 | %25
 x8 | x8 |[M:6/4] x12 |] %28
V:5
 x8 | x8 | x8 | x8 | x8 | x8 | x8 | x8 | z4 z2 A,,2[K:treble] | x8 | x8 | x8 | %12
 z4 z2 A,,2[K:treble] | x8 | x8 | x8 | z4 z2 A,,2[K:treble] | x8 | x8 | x8 | z4 z2 A,,2[K:treble] | %21
 x8 | x8 |[M:5/4] x10 |[M:4/4] x8 | [A,,A,]>[A,,A,] [A,,E,]>[A,,A,] z2 D2 | x8 |[M:6/4] x12 |] %28

